X:82
%%etbk:tnset id:28,pos:2,rep:3x,ant:
%%etbk:video src:ytube,cde:hfIJ54ugWvI,desc:second tune
%%etbk:skill ?
%%etbk:pldat 2013-11-23T15:31,2013-11-09T15:03,2013-11-07T15:16
T: Paddy Fahey's
Z: Piano Box Version by Martin Fleischmann
H: Created 2013-02-19 /  Last Modified 2013-02-19
M: 4/4
L: 1/8
R: reel
K: Gmix
|:!3!BBB!5!d !4!c2dc | !3!B!1!G!3!G!2!F !1!DEF!4!G | !1!GAB!5!d !4!c2dc | !3!B!1!G!4!A!2!^F !1!G3A |
!3!B3d c2dc | !3!B!1!G!3!GF !1!DEF!4!G | !1!GABG !3!cedc |1!2!(3Bcd !1!A!2!^F !1!G3A:|2!2!(3Bcd !1!A!2!^F !1!GAB!4!c||
|:!2!d2!4!gg !2!d!4!g!1!B!1!c | !2!d!4!g!5!ag !3!^f!1!d!2!c!1!A | !2!c2!4!ff !2!c!4!f!1!A!1!B | !2!c!4!f!5!a!4!g !3!^f!1!d!2!c!1!A |
!2!d2!4!gg dg!1!B!1!c | !2!d!4!gag !3!^fde!3!^f | !3!gbag !2!^f!1!d !2!(3e^fg |1!3!^f!1!d!2!c!1!A !1!GAB!4!c:|2!3!^f!1!d!2!c!1!A !1!G3A||
